apps/scalable/glass/glass.svg

<svg xmlns="http://www.w3.org/2000/svg" style="isolation:isolate" width="256" height="256"><defs><filter id="a" width="270.648" height="254.338" x="-7.32" y="2.95" filterUnits="userSpaceOnUse"><feGaussianBlur xmlns="http://www.w3.org/2000/svg" in="SourceGraphic" stdDeviation="4.294"/><feOffset xmlns="http://www.w3.org/2000/svg" dy="4" result="pf_100_offsetBlur"/><feFlood xmlns="http://www.w3.org/2000/svg" flood-opacity=".4"/><feComposite xmlns="http://www.w3.org/2000/svg" in2="pf_100_offsetBlur" operator="in" result="pf_100_dropShadow"/><feBlend xmlns="http://www.w3.org/2000/svg" in="SourceGraphic" in2="pf_100_dropShadow"/></filter></defs><g filter="url(#a)"><linearGradient id="b" x1=".5" x2=".5" y1="-.036" y2="1.036" gradientTransform="matrix(244.648 0 0 228.338 5.676 11.947)" gradientUnits="userSpaceOnUse"><stop offset="0%"/><stop offset="100%" stop-color="#333"/></linearGradient><path fill="url(#b)" d="M165.685 11.947c74.055 0 84.639 10.557 84.639 84.544v59.251c0 73.986-10.584 84.543-84.639 84.543h-75.37c-74.055 0-84.639-10.557-84.639-84.543V96.491c0-73.987 10.584-84.544 84.639-84.544h75.37z"/></g><g opacity=".4"><linearGradient id="c" x1=".517" x2=".517" y2="1"><stop offset="0%" stop-color="#fff"/><stop offset="12.5%" stop-opacity=".098" stop-color="#fff"/><stop offset="92.5%" stop-opacity=".098"/><stop offset="100%" stop-opacity=".498"/></linearGradient><path fill="none" stroke="url(#c)" stroke-linecap="round" stroke-linejoin="round" stroke-width="4.077" d="M165.685 11.947c74.055 0 84.639 10.557 84.639 84.544v59.251c0 73.986-10.584 84.543-84.639 84.543h-75.37c-74.055 0-84.639-10.557-84.639-84.543V96.491c0-73.987 10.584-84.544 84.639-84.544h75.37z" vector-effect="non-scaling-stroke"/></g><defs><filter id="d" width="151.187" height="151.347" x="62.54" y="49.86" filterUnits="userSpaceOnUse"><feGaussianBlur xmlns="http://www.w3.org/2000/svg" stdDeviation=".725"/></filter></defs><path d="M125.388 51.547c33.73 0 61.162 27.433 61.162 61.162 0 14.707-5.218 28.216-13.897 38.776l5.83 5.83 1.441-1.442 32.11 32.11-11.533 11.532-32.111-32.11 1.442-1.442-5.848-5.847c-10.534 8.592-23.971 13.756-38.596 13.756-33.73 0-61.162-27.433-61.162-61.163 0-33.729 27.432-61.162 61.162-61.162zm0 8.293c-29.248 0-52.87 23.622-52.87 52.869 0 29.248 23.622 52.87 52.87 52.87 29.248 0 52.87-23.622 52.87-52.87 0-29.247-23.622-52.869-52.87-52.869z" opacity=".1" filter="url(#d)"/><defs><filter id="e" width="164.703" height="164.862" x="55.78" y="43.1" filterUnits="userSpaceOnUse"><feGaussianBlur xmlns="http://www.w3.org/2000/svg" stdDeviation="3.627"/></filter></defs><g opacity=".3" filter="url(#e)"><linearGradient id="f" x1="1.082" x2=".034" y1=".985" y2=".985" gradientTransform="matrix(-147.808 0 0 147.968 212.034 51.547)" gradientUnits="userSpaceOnUse"><stop offset="0%" stop-opacity="0"/><stop offset="47.697%"/><stop offset="100%" stop-opacity="0"/></linearGradient><path fill="url(#f)" d="M125.388 51.547c33.73 0 61.162 27.433 61.162 61.162 0 14.707-5.218 28.216-13.897 38.776l5.83 5.83 1.441-1.442 32.11 32.11-11.533 11.532-32.111-32.11 1.442-1.442-5.848-5.847c-10.534 8.592-23.971 13.756-38.596 13.756-33.73 0-61.162-27.433-61.162-61.163 0-33.729 27.432-61.162 61.162-61.162zm0 8.293c-29.248 0-52.87 23.622-52.87 52.869 0 29.248 23.622 52.87 52.87 52.87 29.248 0 52.87-23.622 52.87-52.87 0-29.247-23.622-52.869-52.87-52.869z"/></g><path fill="#333" d="M161.681 156.793l8.65-8.65 12.23 12.23-8.65 8.65-12.23-12.23z"/><path fill="#FDC92B" d="M168.391 166.383l11.53-11.53 32.11 32.11-11.53 11.53-32.11-32.11z"/><circle fill="#FDFDFD" fill-opacity=".543" r="1" transform="translate(125.888 111.19) scale(57.016)" vector-effect="non-scaling-stroke"/><path fill="#4D4D4D" fill-rule="evenodd" d="M125.39 172.85c-8.18.01-16.27-1.63-23.8-4.81a61.185 61.185 0 0 1-19.44-13.11 61.408 61.408 0 0 1-13.11-19.44 60.977 60.977 0 0 1-4.81-23.8 61.013 61.013 0 0 1 4.81-23.8 61.408 61.408 0 0 1 13.11-19.44 61.185 61.185 0 0 1 19.44-13.11 60.977 60.977 0 0 1 23.8-4.81c8.17-.01 16.27 1.63 23.8 4.81a61.408 61.408 0 0 1 32.55 32.55 60.977 60.977 0 0 1 4.81 23.8c.01 8.18-1.63 16.27-4.81 23.8a61.408 61.408 0 0 1-32.55 32.55 61.013 61.013 0 0 1-23.8 4.81zm0-8.29h-.01c-7.06 0-14.05-1.41-20.56-4.16a53.03 53.03 0 0 1-16.81-11.33 53.225 53.225 0 0 1-11.34-16.81 52.828 52.828 0 0 1-4.15-20.57 52.658 52.658 0 0 1 4.16-20.57 53.03 53.03 0 0 1 28.14-28.14c6.51-2.75 13.5-4.16 20.57-4.16 7.06 0 14.06 1.41 20.57 4.16a52.987 52.987 0 0 1 16.8 11.33 52.894 52.894 0 0 1 11.34 16.81 52.875 52.875 0 0 1 4.16 20.57c0 7.07-1.41 14.06-4.16 20.57a52.894 52.894 0 0 1-11.34 16.81 52.987 52.987 0 0 1-16.8 11.33 52.838 52.838 0 0 1-20.57 4.16z"/><circle fill="#FFF" fill-opacity=".543" r="1" transform="translate(109.078 95.38) scale(20.387)" vector-effect="non-scaling-stroke"/></svg>

<svg xmlns="http://www.w3.org/2000/svg" style="isolation:isolate" width="256" height="256" viewBox="0 0 256 256">
 <defs>
  <filter id="KohYKC5xOLxDG4p8WfRgYMxtxUYWHqIn" width="270.648" height="254.338" x="-7.32" y="2.95" filterUnits="userSpaceOnUse">
   <feGaussianBlur xmlns="http://www.w3.org/2000/svg" in="SourceGraphic" stdDeviation="4.294"/>
   <feOffset xmlns="http://www.w3.org/2000/svg" dx="0" dy="4" result="pf_100_offsetBlur"/>
   <feFlood xmlns="http://www.w3.org/2000/svg" flood-opacity=".4"/>
   <feComposite xmlns="http://www.w3.org/2000/svg" in2="pf_100_offsetBlur" operator="in" result="pf_100_dropShadow"/>
   <feBlend xmlns="http://www.w3.org/2000/svg" in="SourceGraphic" in2="pf_100_dropShadow" mode="normal"/>
  </filter>
 </defs>
 <g filter="url(#KohYKC5xOLxDG4p8WfRgYMxtxUYWHqIn)">
  <linearGradient id="_lgradient_221" x1=".5" x2=".5" y1="-.036" y2="1.036" gradientTransform="matrix(244.648,0,0,228.338,5.676,11.947)" gradientUnits="userSpaceOnUse">
   <stop offset="0%" style="stop-color:rgb(0,0,0)"/>
   <stop offset="100%" style="stop-color:rgb(51,51,51)"/>
  </linearGradient>
  <path fill="url(#_lgradient_221)" d="M 165.685 11.947 C 239.74 11.947 250.324 22.504 250.324 96.491 L 250.324 155.742 C 250.324 229.728 239.74 240.285 165.685 240.285 L 90.315 240.285 C 16.26 240.285 5.676 229.728 5.676 155.742 L 5.676 96.491 C 5.676 22.504 16.26 11.947 90.315 11.947 L 165.685 11.947 Z"/>
 </g>
 <g opacity=".4">
  <linearGradient id="_lgradient_222" x1=".517" x2=".517" y1="0" y2="1">
   <stop offset="0%" style="stop-color:rgb(255,255,255)"/>
   <stop offset="12.5%" stop-opacity=".098" style="stop-color:rgb(255,255,255)"/>
   <stop offset="92.5%" stop-opacity=".098" style="stop-color:rgb(0,0,0)"/>
   <stop offset="100%" stop-opacity=".498" style="stop-color:rgb(0,0,0)"/>
  </linearGradient>
  <path fill="none" stroke="url(#_lgradient_222)" stroke-linecap="round" stroke-linejoin="round" stroke-width="4.077" d="M 165.685 11.947 C 239.74 11.947 250.324 22.504 250.324 96.491 L 250.324 155.742 C 250.324 229.728 239.74 240.285 165.685 240.285 L 90.315 240.285 C 16.26 240.285 5.676 229.728 5.676 155.742 L 5.676 96.491 C 5.676 22.504 16.26 11.947 90.315 11.947 L 165.685 11.947 Z" vector-effect="non-scaling-stroke"/>
 </g>
 <g>
  <defs>
   <filter id="m7dEc7Xdk7Yt3Pgg3pQkEaRzpsfDdzkY" width="151.187" height="151.347" x="62.54" y="49.86" filterUnits="userSpaceOnUse">
    <feGaussianBlur xmlns="http://www.w3.org/2000/svg" stdDeviation=".725"/>
   </filter>
  </defs>
  <g opacity=".1" filter="url(#m7dEc7Xdk7Yt3Pgg3pQkEaRzpsfDdzkY)">
   <path d="M 125.388 51.547 C 159.118 51.547 186.55 78.98 186.55 112.709 C 186.55 127.416 181.332 140.925 172.653 151.485 L 178.483 157.315 L 179.924 155.873 L 212.034 187.983 L 200.501 199.515 L 168.39 167.405 L 169.832 165.963 L 163.984 160.116 C 153.45 168.708 140.013 173.872 125.388 173.872 C 91.658 173.872 64.226 146.439 64.226 112.709 C 64.226 78.98 91.658 51.547 125.388 51.547 Z M 125.388 59.84 C 96.14 59.84 72.518 83.462 72.518 112.709 C 72.518 141.957 96.14 165.579 125.388 165.579 C 154.636 165.579 178.258 141.957 178.258 112.709 C 178.258 83.462 154.636 59.84 125.388 59.84 Z"/>
  </g>
  <defs>
   <filter id="l1xxBVbEGRqSAUKSzvyZ33b7gQwVWWZE" width="164.703" height="164.862" x="55.78" y="43.1" filterUnits="userSpaceOnUse">
    <feGaussianBlur xmlns="http://www.w3.org/2000/svg" stdDeviation="3.627"/>
   </filter>
  </defs>
  <g opacity=".3" filter="url(#l1xxBVbEGRqSAUKSzvyZ33b7gQwVWWZE)">
   <linearGradient id="_lgradient_223" x1="1.082" x2=".034" y1=".985" y2=".985" gradientTransform="matrix(-147.808,0,0,147.968,212.034,51.547)" gradientUnits="userSpaceOnUse">
    <stop offset="0%" stop-opacity="0" style="stop-color:rgb(0,0,0)"/>
    <stop offset="47.697%" style="stop-color:rgb(0,0,0)"/>
    <stop offset="100%" stop-opacity="0" style="stop-color:rgb(0,0,0)"/>
   </linearGradient>
   <path fill="url(#_lgradient_223)" d="M 125.388 51.547 C 159.118 51.547 186.55 78.98 186.55 112.709 C 186.55 127.416 181.332 140.925 172.653 151.485 L 178.483 157.315 L 179.924 155.873 L 212.034 187.983 L 200.501 199.515 L 168.39 167.405 L 169.832 165.963 L 163.984 160.116 C 153.45 168.708 140.013 173.872 125.388 173.872 C 91.658 173.872 64.226 146.439 64.226 112.709 C 64.226 78.98 91.658 51.547 125.388 51.547 Z M 125.388 59.84 C 96.14 59.84 72.518 83.462 72.518 112.709 C 72.518 141.957 96.14 165.579 125.388 165.579 C 154.636 165.579 178.258 141.957 178.258 112.709 C 178.258 83.462 154.636 59.84 125.388 59.84 Z"/>
  </g>
  <path fill="#333333" d="M 161.681 156.793 L 170.331 148.143 L 182.561 160.373 L 173.911 169.023 L 161.681 156.793 Z"/>
  <path fill="#FDC92B" d="M 168.391 166.383 L 179.921 154.853 L 212.031 186.963 L 200.501 198.493 L 168.391 166.383 Z"/>
  <circle fill="#FDFDFD" fill-opacity=".543" cx="0" cy="0" r="1" transform="matrix(57.016,0,0,57.016,125.888,111.19)" vector-effect="non-scaling-stroke"/>
  <path fill="#4D4D4D" fill-rule="evenodd" d="M 125.39 172.85 M 125.39 172.85 M 125.39 172.85 M 125.39 172.85 M 125.39 172.85 C 117.21 172.86 109.12 171.22 101.59 168.04 C 94.32 164.96 87.72 160.51 82.15 154.93 C 76.57 149.35 72.12 142.75 69.04 135.49 C 65.86 127.96 64.22 119.87 64.23 111.69 C 64.22 103.52 65.86 95.42 69.04 87.89 C 72.12 80.63 76.57 74.03 82.15 68.45 C 87.72 62.87 94.32 58.42 101.59 55.34 C 109.12 52.16 117.21 50.52 125.39 50.53 C 133.56 50.52 141.66 52.16 149.19 55.34 C 156.45 58.42 163.05 62.87 168.63 68.45 C 174.21 74.03 178.66 80.63 181.74 87.89 C 184.92 95.42 186.56 103.51 186.55 111.69 C 186.56 119.87 184.92 127.96 181.74 135.49 C 178.66 142.75 174.21 149.35 168.63 154.93 C 163.05 160.51 156.45 164.96 149.19 168.04 C 141.66 171.22 133.56 172.86 125.39 172.85 Z M 125.39 164.56 L 125.38 164.56 C 118.32 164.56 111.33 163.15 104.82 160.4 C 98.54 157.74 92.83 153.89 88.01 149.07 C 83.19 144.25 79.34 138.54 76.67 132.26 C 73.93 125.75 72.51 118.76 72.52 111.69 C 72.51 104.62 73.93 97.63 76.68 91.12 C 79.34 84.84 83.19 79.13 88.01 74.31 C 92.83 69.49 98.54 65.64 104.82 62.98 C 111.33 60.23 118.32 58.82 125.39 58.82 C 132.45 58.82 139.45 60.23 145.96 62.98 C 152.24 65.64 157.94 69.49 162.76 74.31 C 167.59 79.13 171.44 84.84 174.1 91.12 C 176.85 97.63 178.26 104.63 178.26 111.69 C 178.26 118.76 176.85 125.75 174.1 132.26 C 171.44 138.54 167.59 144.25 162.76 149.07 C 157.94 153.89 152.24 157.74 145.96 160.4 C 139.45 163.15 132.46 164.56 125.39 164.56 C 125.39 164.56 125.39 164.56 125.39 164.56 L 125.39 164.56 Z"/>
  <circle fill="#FFFFFF" fill-opacity=".543" cx="0" cy="0" r="1" transform="matrix(20.387,0,0,20.387,109.078,95.38)" vector-effect="non-scaling-stroke"/>
 </g>
</svg>
